48x48/apps/com.github.bharatkalluri.easypass.svg

<svg xmlns="http://www.w3.org/2000/svg" width="48" height="48" version="1.1">
 <path fill="#0d86cb" d="m15 13a11 11 0 0 0 -11 11 11 11 0 0 0 11 11 11 11 0 0 0 10.572 -8h8.4277v5.0273h6.9648v-5.0273h3.0352v-7h-18.754a11 11 0 0 0 -10.246 -7z"/>
 <circle opacity=".2" cx="15" cy="25" r="4"/>
 <circle fill="#f9f9f9" cx="15" cy="24" r="4"/>
 <path fill="#fff" opacity=".2" d="m15 13a11 11 0 0 0 -11 11 11 11 0 0 0 0.0215 0.4141 11 11 0 0 1 10.978 -10.414 11 11 0 0 1 10.246 7h18.754v-1h-18.754a11 11 0 0 0 -10.246 -7z"/>
 <path opacity=".2" d="m4.0215 24.414a11 11 0 0 0 -0.0215 0.586 11 11 0 0 0 11 11 11 11 0 0 0 10.572 -8h8.428v-1h-8.428a11 11 0 0 1 -10.572 8 11 11 0 0 1 -10.978 -10.586zm36.944 2.586v1h3.035v-1h-3.035zm-6.965 5.027v1h6.965v-1h-6.965z"/>
</svg>

<svg xmlns="http://www.w3.org/2000/svg" width="48" height="48"><path fill="#0d86cb" d="M15 13A11 11 0 0 0 4 24a11 11 0 0 0 11 11 11 11 0 0 0 10.572-8H34v5.027h6.964V27H44v-7H25.246A11 11 0 0 0 15 13z"/><circle opacity=".2" cx="15" cy="25" r="4"/><circle fill="#f9f9f9" cx="15" cy="24" r="4"/><path fill="#fff" opacity=".2" d="M15 13A11 11 0 0 0 4 24a11 11 0 0 0 .021.414A11 11 0 0 1 15 14a11 11 0 0 1 10.245 7H44v-1H25.244A11 11 0 0 0 15 13z"/><path opacity=".2" d="M4.021 24.414A11 11 0 0 0 4 25a11 11 0 0 0 11 11 11 11 0 0 0 10.572-8H34v-1h-8.428A11 11 0 0 1 15 35 11 11 0 0 1 4.022 24.414zM40.966 27v1H44v-1h-3.035zM34 32.027v1h6.965v-1H34z"/></svg>
